X: 1661
T: Lawrie Cobley's Cattle Lullaby
B: australian traditional tunes wiki
M:3/4
L:1/8
R: Air
Q: 1/4=100
K:A
V:1 
EF|:"A"A4 (3ABA|FE3A2|"E"B4 {cB} AB|"A"ce3ec|
BA3AB|c4(3cdc|"D"BA3F2|1"A"FE3EF:|2"A"FE3EF|A4||
|:AB|"A"ce3ef|e4(3ecA|"D"a4a2|"A"fe3AB|
ce3ef|e2c2A2|1"B7"cB3Bc|"E"B4:|2"E7"c3 B3 "D.C."(3BcB:|3 "Fin"A4|
NOTES 
Lawrie Cobley was a Aboriginal cattle drover in Queensland. He played this tune on his harmonica to 
let the mob know where he was at night. It has an unusual repetitive and hypnotic melody.
% abcbook-tune_id 6342d53a157e67b0a5258c42


% abcbook-boost 0
% abcbook-tablature 
% abcbook-transpose 
% abcbook-lastupdated 1665324376675
% abcbook-soundfonts 
% abcbook-repeats 1
% NFF Book 2007
%%begintext align
%%endtext

